modules/feathericon/icons/link.svg

<?xml version="1.0" encoding="UTF-8"?>
<svg width="16px" height="9px" viewBox="0 0 16 9" version="1.1" xmlns="http://www.w3.org/2000/svg" xmlns:xlink="http://www.w3.org/1999/xlink">
    <!-- Generator: sketchtool 48.1 (47250) - http://www.bohemiancoding.com/sketch -->
    <title>link</title>
    <desc>Created with sketchtool.</desc>
    <defs></defs>
    <g id="web-app" stroke="none" stroke-width="1" fill="none" fill-rule="evenodd">
        <g id="link" fill="#000000" fill-rule="nonzero">
            <path d="M4,5.0098877 L4,6 C2.99999905,5.98702717 8.42423275e-07,5.99816433 0,2.99908216 C-8.42423276e-07,0 2.99999916,0 2.99999916,0 L7.99999916,0 C7.99999916,0 11,0 11,3 C11,6 7.99999905,6 7.99999905,6 L7.99999905,5.0098877 C7.99999905,5.0098877 9.99443626,5.0098877 9.99999905,2.99908209 C10.0055618,0.988276482 7.99999916,1 7.99999916,1 L2.99999916,1.0133651 C2.99999916,1.0133651 0.999999166,1 0.999999158,2.99705392 C0.99999915,4.99410784 2.99999905,5.0098877 4,5.0098877 Z M12,3.9901123 L12,3 C13.000001,3.01297283 15.9999992,3.00183567 16,6.00091784 C16.0000008,9 13.0000008,9 13.0000008,9 L8.00000084,9 C8.00000084,9 5,9 5,6 C5,3 8.00000095,3 8.00000095,3 L8.00000095,3.9901123 C8.00000095,3.9901123 6.00556374,3.9901123 6.00000095,6.00091791 C5.99443817,8.01172352 8.00000084,8 8.00000084,8 L13.0000008,7.9866349 C13.0000008,7.9866349 15.0000008,8 15.0000008,6.00294608 C15.0000009,4.00589216 13.000001,3.9901123 12,3.9901123 Z" id="Shape"></path>
        </g>
    </g>
</svg>

<svg width="16" height="9" xmlns="http://www.w3.org/2000/svg"><path d="M4 5.01V6c-1-.013-4-.002-4-3 0-3 3-3 3-3h5s3 0 3 3-3 3-3 3v-.99s1.994 0 2-2.01c.006-2.012-2-2-2-2l-5 .013S1 1 1 2.997C1 4.994 3 5.01 4 5.01zm8-1.02V3c1 .013 4 .002 4 3 0 3-3 3-3 3H8S5 9 5 6s3-3 3-3v.99S6.006 3.99 6 6c-.006 2.012 2 2 2 2l5-.013S15 8 15 6.003c0-1.997-2-2.013-3-2.013z" fill="#000" fill-rule="nonzero"/></svg>
